img/logos/codeship.svg

<?xml version="1.0" encoding="UTF-8" standalone="no" ?>
<svg width="256px" height="256px" viewBox="0 0 256 256" version="1.1" xmlns="http://www.w3.org/2000/svg" xmlns:xlink="http://www.w3.org/1999/xlink" preserveAspectRatio="xMinYMin meet">
    <g>
        <path d="M245.176607,128.82503 C245.176607,193.556277 192.701254,246.03163 127.970007,246.03163 C63.2387591,246.03163 10.7638284,193.556277 10.7638284,128.82503 C10.7638284,64.0937822 63.2387591,11.618429 127.970007,11.618429 C192.701254,11.618429 245.176607,64.0937822 245.176607,128.82503" fill="#FFFFFF"></path>
        <path d="M128,255.788779 C93.8662442,255.788779 61.7758416,242.496211 37.6400264,218.359974 C13.5037888,194.224158 0.211221122,162.133756 0.211221122,128 C0.211221122,93.8662442 13.5037888,61.7758416 37.6400264,37.639604 C61.7758416,13.5033663 93.8662442,0.211221122 128,0.211221122 C162.133756,0.211221122 194.224158,13.5033663 218.359974,37.639604 C242.496211,61.7758416 255.788779,93.8662442 255.788779,128 C255.788779,162.133756 242.496211,194.224158 218.359974,218.359974 C194.224158,242.496211 162.133756,255.788779 128,255.788779 L128,255.788779 Z M128,14.1518152 C97.5900726,14.1518152 69.0004488,25.9941386 47.4972937,47.4972937 C25.9941386,69.0000264 14.1518152,97.5900726 14.1518152,128 C14.1518152,158.409927 25.9941386,186.999551 47.4972937,208.502706 C69.0004488,230.005861 97.5900726,241.848185 128,241.848185 C158.409927,241.848185 186.999551,230.005861 208.502706,208.502706 C230.005861,186.999551 241.848185,158.409927 241.848185,128 C241.848185,97.5900726 230.005861,69.0000264 208.502706,47.4972937 C186.999551,25.9941386 158.409927,14.1518152 128,14.1518152 L128,14.1518152 Z" fill="#3C4655"></path>
        <path d="M86.6500858,95.2155248 C86.6500858,88.1636964 86.6864158,81.4886865 86.6226271,74.8145215 C86.6078416,73.2835908 87.5629835,72.7407525 88.6406337,72.2029835 C93.3905743,69.8313927 98.5262046,68.6536238 103.625927,67.3491221 C124.460779,62.0204356 144.877413,64.040132 164.99538,70.8841188 C170.267036,72.6773861 170.22268,72.8083432 170.22268,78.3034719 L170.22268,95.1018878 C169.40103,95.2151023 169.033927,94.7174653 168.594587,94.416264 C156.750152,86.2994587 143.881716,80.3083828 130.273162,75.8152871 C128.431736,75.2069703 126.816317,75.2331617 124.994323,75.8689373 C111.869888,80.4486337 99.4585347,86.4337954 87.9964092,94.3334653 C87.6601452,94.5649637 87.3133201,94.7816766 86.6500858,95.2155248" fill="#3C4655"></path>
        <path d="M108.19464,46.3089637 C108.19464,43.5647789 108.342917,40.8096106 108.147749,38.0789439 C107.988488,35.8480264 109.070785,34.6901122 110.856449,33.8325545 C114.770376,31.9526865 118.952554,31.0144422 123.218799,30.50033 C130.270205,29.6503762 137.102785,30.7352079 143.700488,33.2804224 C147.560766,34.7695314 147.834086,35.2663234 147.834086,39.3086733 C147.834086,44.5866667 147.80029,49.8650825 147.856053,55.142231 C147.871261,56.5506535 147.720871,57.0947591 146.015472,56.755538 C133.941228,54.3552211 121.841215,54.3163564 109.774152,56.8298878 C108.263076,57.1446073 108.153241,56.5950099 108.176053,55.3868251 C108.232238,52.3617162 108.19464,49.3353399 108.19464,46.3089637" fill="#6E717E"></path>
        <path d="M222.630865,157.638125 C218.909993,155.238231 215.326416,152.622046 211.570059,150.282139 C203.991023,145.560079 196.283987,141.050086 187.670812,138.411089 C185.060119,137.610983 182.401267,136.817637 179.610191,137.684488 C176.863472,138.537822 174.618614,140.217875 172.468805,142.029307 C167.885729,145.890851 163.869149,150.342548 159.567419,154.497267 C159.061333,154.985611 158.741122,155.822891 157.830759,155.762904 C157.575604,155.366653 157.771195,155.051934 157.871314,154.720317 C162.151921,140.520766 168.942257,127.70936 178.997228,116.730931 C180.041083,115.591182 180.089241,115.022152 178.859089,113.968158 C164.393822,101.577083 148.397201,91.8866799 130.186139,86.0223366 C128.78701,85.5715908 127.520528,85.4985083 126.124356,85.9923432 C108.051855,92.3855842 91.5795644,101.548779 77.0593795,114.140515 C75.9453993,115.106218 76.0983234,115.586535 77.0222046,116.569135 C83.8873135,123.871472 89.0875776,132.267512 92.9753135,141.476752 C94.6612805,145.471366 96.4541254,149.444858 97.2069175,153.76771 C98.7598152,160.246284 100.236673,175.34099 101.034244,176.087868 C90.5771089,173.543076 88.4725017,172.393611 81.8832475,169.188119 C73.2409241,164.983551 64.4199076,162.329769 54.6357228,162.922033 C48.7451881,163.278574 43.7738878,164.357914 38.2310231,166.231023 C37.2501122,166.56264 35.1725413,167.711683 35.5709043,168.534178 C35.7018614,168.927472 35.799868,168.948594 35.9684224,169.32499 C41.3777954,181.418667 48.8676964,192.058719 58.5492277,201.09138 C78.2743234,219.492964 101.645941,229.048607 128.651406,229.122112 C146.384264,229.170693 162.989624,224.486653 178.278653,215.495815 C200.028092,202.705954 215.220383,184.442931 223.587274,160.565228 C224.077729,159.166521 223.855947,158.428515 222.630865,157.638125 L222.630865,157.638125 Z M131.94899,135.791525 C131.661307,150.952554 129.663578,158.153505 128.515802,169.05505 C128.427512,169.893175 128.054917,172.077624 128.054917,172.077624 C128.054917,172.077624 127.392106,169.289083 127.32198,169.026323 C126.111261,159.11963 125.165413,151.684224 124.024818,141.769505 C123.108541,133.805624 122.756647,125.769505 122.841558,117.789149 C122.891828,113.047234 124.748462,108.325175 125.790627,103.593399 C126.474561,100.488026 127.002614,97.6631551 128,94.2988251 C129.175234,100.100224 130.439182,105.956119 131.881399,111.690772 C133.909545,119.755195 132.101069,127.770614 131.94899,135.791525 L131.94899,135.791525 Z" fill="#3C4655"></path>
        <path d="M97.2069175,154.154667 C101.551314,159.223974 106.985188,162.935129 112.664502,166.274535 C116.653624,168.620356 120.863261,170.572884 125.406205,171.667855 C126.13534,171.844013 129.873109,172.608211 130.81938,172.694389 C132.077835,172.808871 132.891881,172.884488 134.688528,172.955036 C130.369479,174.839974 126.221518,176.345135 121.90965,177.108911 C109.284541,178.707855 98.2165545,177.513188 86.9115776,172.244066 C79.9674719,169.007736 73.241769,165.478653 65.5490957,164.29497 C55.804198,162.7953 45.9917096,163.942653 36.8230231,167.463287 C36.3642508,167.639023 36.0334785,168.368158 35.5709043,168.534178 C33.7632739,165.017769 32.6928053,161.228884 31.4601188,157.497875 C31.1568053,156.58033 31.1568053,156.58033 32.1765809,155.510706 C42.3042112,146.674904 53.6336898,140.824079 67.5071155,141.499142 C77.688396,141.994667 86.5799604,145.909017 94.5636964,152.08301 C95.4491353,152.768211 96.3261254,153.463974 97.2069175,154.154667" fill="#777885"></path>
    </g>
</svg>

<svg width="256" height="256" viewBox="0 0 256 256" xmlns="http://www.w3.org/2000/svg" preserveAspectRatio="xMinYMin meet"><path d="M245.177 128.825c0 64.73-52.476 117.207-117.207 117.207-64.73 0-117.206-52.476-117.206-117.207 0-64.73 52.475-117.207 117.206-117.207 64.73 0 117.207 52.476 117.207 117.207" fill="#FFF"/><path d="M128 255.79c-34.134 0-66.224-13.294-90.36-37.43C13.504 194.224.21 162.134.21 128s13.294-66.224 37.43-90.36C61.776 13.503 93.866.21 128 .21s66.224 13.293 90.36 37.43c24.136 24.136 37.43 56.226 37.43 90.36s-13.294 66.224-37.43 90.36c-24.136 24.136-56.226 37.43-90.36 37.43zm0-241.638c-30.41 0-59 11.842-80.503 33.345S14.152 97.59 14.152 128c0 30.41 11.842 59 33.345 80.503S97.59 241.848 128 241.848c30.41 0 59-11.842 80.503-33.345S241.848 158.41 241.848 128c0-30.41-11.842-59-33.345-80.503S158.41 14.152 128 14.152z" fill="#3C4655"/><path d="M86.65 95.216c0-7.052.036-13.727-.027-20.4-.015-1.532.94-2.075 2.018-2.613 4.75-2.372 9.886-3.55 14.986-4.854 20.835-5.33 41.25-3.31 61.37 3.534 5.27 1.793 5.227 1.924 5.227 7.42V95.1c-.822.113-1.19-.385-1.628-.686-11.845-8.117-24.713-14.108-38.322-18.6-1.84-.61-3.457-.583-5.28.053-13.123 4.58-25.534 10.564-36.997 18.463-.336.232-.683.45-1.346.883" fill="#3C4655"/><path d="M108.195 46.31c0-2.745.148-5.5-.047-8.23-.16-2.232.923-3.39 2.708-4.247 3.914-1.88 8.097-2.82 12.363-3.333 7.05-.85 13.883.235 20.48 2.78 3.86 1.49 4.134 1.986 4.134 6.03 0 5.277-.034 10.555.022 15.832.015 1.41-.135 1.953-1.84 1.614-12.075-2.4-24.175-2.44-36.242.074-1.51.315-1.62-.235-1.598-1.443.056-3.025.02-6.052.02-9.078" fill="#6E717E"/><path d="M222.63 157.638c-3.72-2.4-7.304-5.016-11.06-7.356-7.58-4.722-15.286-9.232-23.9-11.87-2.61-.8-5.27-1.594-8.06-.728-2.747.854-4.99 2.534-7.14 4.345-4.584 3.86-8.6 8.313-12.903 12.467-.506.49-.826 1.326-1.736 1.266-.254-.396-.06-.71.04-1.043 4.282-14.2 11.072-27.01 21.127-37.99 1.044-1.14 1.092-1.708-.138-2.762-14.466-12.39-30.463-22.08-48.674-27.946-1.4-.45-2.665-.523-4.062-.03-18.072 6.394-34.544 15.557-49.065 28.15-1.115.964-.962 1.445-.038 2.427 6.865 7.3 12.066 15.698 15.953 24.907 1.686 3.994 3.48 7.968 4.232 12.29 1.553 6.48 3.03 21.574 3.827 22.32-10.457-2.544-12.56-3.693-19.15-6.9-8.643-4.203-17.464-6.857-27.248-6.265-5.89.357-10.862 1.436-16.405 3.31-.98.33-3.057 1.48-2.66 2.302.132.393.23.415.398.79 5.41 12.095 12.9 22.735 22.58 31.767 19.726 18.403 43.098 27.96 70.103 28.032 17.734.05 34.34-4.635 49.63-13.626 21.748-12.79 36.94-31.053 45.307-54.93.49-1.4.27-2.137-.956-2.928zm-90.68-21.846c-.29 15.16-2.286 22.362-3.434 33.263-.088.838-.46 3.023-.46 3.023s-.664-2.79-.734-3.052c-1.21-9.906-2.157-17.342-3.297-27.256-.916-7.964-1.268-16-1.183-23.98.05-4.743 1.906-9.465 2.95-14.197.683-3.105 1.21-5.93 2.208-9.294 1.175 5.8 2.44 11.656 3.88 17.39 2.03 8.065.22 16.08.07 24.102z" fill="#3C4655"/><path d="M97.207 154.155c4.344 5.07 9.778 8.78 15.458 12.12 3.99 2.345 8.198 4.298 12.74 5.393.73.176 4.468.94 5.414 1.026 1.258.115 2.072.19 3.87.26-4.32 1.886-8.468 3.39-12.78 4.155-12.625 1.598-23.693.403-34.998-4.866-6.945-3.236-13.67-6.765-21.363-7.95-9.746-1.5-19.558-.35-28.727 3.17-.46.175-.79.904-1.252 1.07-1.807-3.516-2.877-7.305-4.11-11.036-.303-.918-.303-.918.717-1.987 10.127-8.835 21.457-14.686 35.33-14.01 10.18.495 19.073 4.41 27.057 10.583.885.685 1.762 1.38 2.643 2.072" fill="#777885"/></svg>
